dist/img/sprites/tipQ.svg

<svg width="16" height="15" viewBox="0 0 16 15" fill="none" xmlns="http://www.w3.org/2000/svg">
<path fill-rule="evenodd" clip-rule="evenodd" d="M0.880602 3.08658C0.5 4.00544 0.5 5.17029 0.5 7.5C0.5 9.82971 0.5 10.9946 0.880602 11.9134C1.38807 13.1386 2.36144 14.1119 3.58658 14.6194C4.50544 15 5.67029 15 8 15C10.3297 15 11.4946 15 12.4134 14.6194C13.6386 14.1119 14.6119 13.1386 15.1194 11.9134C15.5 10.9946 15.5 9.82971 15.5 7.5C15.5 5.17029 15.5 4.00544 15.1194 3.08658C14.6119 1.86144 13.6386 0.888072 12.4134 0.380602C11.4946 0 10.3297 0 8 0C5.67029 0 4.50544 0 3.58658 0.380602C2.36144 0.888072 1.38807 1.86144 0.880602 3.08658ZM7.42 8.748H9.076C9.076 8.556 9.144 8.364 9.28 8.172C9.424 7.98 9.592 7.796 9.784 7.62C9.984 7.436 10.18 7.244 10.372 7.044C10.572 6.836 10.74 6.588 10.876 6.3C11.02 6.004 11.092 5.692 11.092 5.364C11.092 4.628 10.824 4.052 10.288 3.636C9.752 3.212 9.124 3 8.404 3C7.748 3 7.16 3.164 6.64 3.492C6.12 3.82 5.74 4.276 5.5 4.86L6.916 5.676C7.196 4.964 7.672 4.608 8.344 4.608C8.688 4.608 8.956 4.684 9.148 4.836C9.34 4.988 9.436 5.204 9.436 5.484C9.436 5.932 9.1 6.428 8.428 6.972C8.156 7.188 7.92 7.456 7.72 7.776C7.52 8.096 7.42 8.42 7.42 8.748ZM8.968 11.424C9.168 11.224 9.268 10.984 9.268 10.704C9.268 10.424 9.168 10.184 8.968 9.984C8.768 9.784 8.528 9.684 8.248 9.684C7.968 9.684 7.728 9.784 7.528 9.984C7.328 10.184 7.228 10.424 7.228 10.704C7.228 10.984 7.328 11.224 7.528 11.424C7.728 11.624 7.968 11.724 8.248 11.724C8.528 11.724 8.768 11.624 8.968 11.424Z" fill="var(--grey)"/>
</svg>

<svg width="16" height="15" viewBox="0 0 16 15" fill="none" xmlns="http://www.w3.org/2000/svg"><path fill-rule="evenodd" clip-rule="evenodd" d="M.88 3.087C.5 4.005.5 5.17.5 7.5s0 3.495.38 4.413a5 5 0 002.707 2.706C4.505 15 5.67 15 8 15s3.495 0 4.413-.38a5 5 0 002.706-2.707c.381-.918.381-2.083.381-4.413s0-3.495-.38-4.413A5 5 0 0012.412.38C11.495 0 10.33 0 8 0S4.505 0 3.587.38A5 5 0 00.88 3.088zm6.54 5.661h1.656c0-.192.068-.384.204-.576.144-.192.312-.376.504-.552.2-.184.396-.376.588-.576.2-.208.368-.456.504-.744.144-.296.216-.608.216-.936 0-.736-.268-1.312-.804-1.728C9.752 3.212 9.124 3 8.404 3c-.656 0-1.244.164-1.764.492-.52.328-.9.784-1.14 1.368l1.416.816c.28-.712.756-1.068 1.428-1.068.344 0 .612.076.804.228.192.152.288.368.288.648 0 .448-.336.944-1.008 1.488a3.138 3.138 0 00-.708.804c-.2.32-.3.644-.3.972zm1.548 2.676c.2-.2.3-.44.3-.72 0-.28-.1-.52-.3-.72-.2-.2-.44-.3-.72-.3-.28 0-.52.1-.72.3-.2.2-.3.44-.3.72 0 .28.1.52.3.72.2.2.44.3.72.3.28 0 .52-.1.72-.3z" fill="var(--grey)"/></svg>
